!!!!SEGMENT: pl-wn--sd-xvi-qu-273--049_gomolka-mikolaj--sluchaj-co-zywo-wszytki-ziemskie-kraje.krn
!!!cenid: 15xx:254
!!!COM: Gomółka, Mikołaj
!!!COM-rismid: pe30013343
!!!CDT: ~1535->1591/04/30
!!!CNT: Polish
!!!GTL: Melodiae na psalterz polski
!!!OTL: XLIX. Słuchaj, słuchaj co żywo, wszytki ziemskie kraje
!!!PDT: 1580
!!!AGN: Sacred
!!!SMS-siglum: PL-Wn
!!!SMS-shelfmark: SD XVI.Qu.273
!!!SMS-shelfwork: 049 G
!!!NIFC-rismid:
!!!ONB-nifc: Melodiae na psalterz polski
**kern	**text	**kern	**text	**kern	**text	**kern	**text
*part4	*part4	*part3	*part3	*part2	*part2	*part1	*part1
*staff4	*staff4	*staff3	*staff3	*staff2	*staff2	*staff1	*staff1
*clefF4	*	*clefC3	*	*clefC3	*	*clefC1	*
*k[b-]	*	*k[b-]	*	*k[b-]	*	*k[b-]	*
*F:	*	*F:	*	*F:	*	*F:	*
*M4/2	*	*M4/2	*	*M4/2	*	*M4/2	*
*met(C|)	*	*met(C|)	*	*met(C|)	*	*met(C|)	*
=1-	=1-	=1-	=1-	=1-	=1-	=1-	=1-
1C	Słu-	1e	Słu-	1g	Słu-	1cc	Słu-
1F	-chay/	1f	-chay/	1a	-chay/	1cc	-chay/
=2-	=2-	=2-	=2-	=2-	=2-	=2-	=2-
2r	.	2r	.	2r	.	2r	.
2F	ʃłu-	2f	ʃłu-	2a	ʃłu-	2cc	ʃłu-
2c	-(chay)	2e	-(chay)	2.g	-chay	2cc	-chay
2c	co	2e	co	.	.	2cc	co
.	.	.	.	4a	co	.	.
=3-	=3-	=3-	=3-	=3-	=3-	=3-	=3-
!	!'ż'	!	!'ż'	!	!'ż'	!	!'ż'
1B-	ᴣy-	2.d	ᴣy	1b-	ᴣy-	1dd	ᴣy-
.	.	4e	.	.	.	.	.
2F	-wo:	2f	wo:	2a	-wo:	2cc	-wo:
1C	wʃᴣyt-	1e	wʃᴣyt-	1g	wʃᴣyt-	1cc	wʃᴣyt-
=4-	=4-	=4-	=4-	=4-	=4-	=4-	=4-
2F	-(ťi)	2f	-ťi	2a	-(ťi)	2a	-(ťi)
!	!'ź'	!	!'ź'	!	!'ź'	!	!'ź'
2G	ᴣiem-	2d	ᴣiem-	2g	ᴣie(m-	2b-	ᴣi(em-
2C	-(skie)	2c/	-(skie)	2g	-skie)	2cc	-skie)
=5-	=5-	=5-	=5-	=5-	=5-	=5-	=5-
2F	ťrá	4F	ťrá	1f	ťrá-	1a	ťrá-
.	.	4G	.	.	.	.	.
2FF	.	4A	.	.	.	.	.
.	.	4B-	.	.	.	.	.
2C	ie	2c/	ie	2e	-ie	2g/	-ie
2C	Ná-	2c/	Ná-	2e	Ná-	2g/	Ná-
=6-	=6-	=6-	=6-	=6-	=6-	=6-	=6-
2D/	-ťłoń-	2A	-ťłoń-	2d	-ťłoń-	2f	-ťłoń-
2BB-	-ćie	2B-	-ćie	2d	-ćie	2f	-ćie
1D	u-	2.A	u	1d	u-	1f	u-
.	.	4B-	.	.	.	.	.
=7-	=7-	=7-	=7-	=7-	=7-	=7-	=7-
2C	-ӡʃᴣu:	2c	ӡʃᴣu:	2G	-ӡʃᴣu:	2e	-ӡʃᴣu:
2D/	y	2f	y	2d	y	2f	y
2E	ťę	4e	ťę	2c/	ťę	2g/	ťę
.	.	4d	.	.	.	.	.
2F	.	2c/	.	2.f	.	2a	.
4ryy	.	4ryy	.	.	.	4ryy	.
!!LO:PB:g=original
=8-	=8-	=8-	=8-	=8-	=8-	=8-	=8-
2B-	dy	2d	dy	4ryy	.	2b-	dy
.	.	.	.	4g	dy	.	.
2A	.	2e	.	2a	.	2cc	.
!	!'ź'	!	!'ź'	!	!'ź'	!	!'ź'
4D	dӡień	1f	dӡień	1a	dӡień	1dd	dӡień
4E	.	.	.	.	.	.	.
4F	.	.	.	.	.	.	.
4G	.	.	.	.	.	.	.
=9-	=9-	=9-	=9-	=9-	=9-	=9-	=9-
2.A	wʃtá	2e	wʃtá	2a	wʃtá	2.cc	wʃtá
.	.	2e	.	4A	.	.	.
4G	.	.	.	4B-	.	4b-	.
2F	ie/	2.f	ie/	2c/	ie/	2a	ie/
2C	Y	.	.	2c/	Y	2g/	Y
.	.	4e	Y	.	.	.	.
=10-	=10-	=10-	=10-	=10-	=10-	=10-	=10-
2D/	ťę-	2d	ťę-	2A	ťę-	2f	ťę-
2AA	-dy	2c/	-dy	2A	-dy	2e	-dy
1BB-	gaś-	1B-	gaś-	1F	gaś-	1d	gaś-
=11-	=11-	=11-	=11-	=11-	=11-	=11-	=11-
2FF	-nie:	2.A	-nie:	2F	-nie:	2c	-nie:
2FF	y	.	.	2f	y	2a	y
.	.	4G	y	.	.	.	.
2FF	ťtó-	4A	ťtó	2f	ťtó-	2a	ťtó-
.	.	4B-	.	.	.	.	.
2C	-rym	2c/	rym	2e	-rym	4g	-rym
.	.	.	.	.	.	4a	.
=12-	=12-	=12-	=12-	=12-	=12-	=12-	=12-
4GG	ʃło	1B-	ʃło-	1d	ʃło_necӡ	2b-	ʃło-
4AA	.	.	.	.	.	.	.
4BB-	.	.	-necӡ-	.	.	2b-	-necӡ-
4C	.	.	.	.	.	.	.
4D	ny	4F	-ny	2d	-ny	1a	-ny
4E	.	4G	.	.	.	.	.
2F	.	4A	.	4c	.	.	.
.	.	4B-	.	4d	.	.	.
=13-	=13-	=13-	=13-	=13-	=13-	=13-	=13-
2C	pro-	2c/	pro-	4e	pro	2g	pro-
.	.	.	.	4f	.	.	.
1G	-miéń	4B-	-miéń	2g	miéń	1b-	-miéń
.	.	4A	.	.	.	.	.
.	.	4B-	.	1d	.	.	.
.	.	4c/	.	.	.	.	.
2F	.	2d	.	.	.	2a	.
!!LO:PB:g=original
=14-	=14-	=14-	=14-	=14-	=14-	=14-	=14-
2E-X	doy	2B-	doy	2e-X	doy	1g	doy-
2C	.	2c/	.	2e-	.	.	.
2D/	mu-	2A	mu-	2d	mu-	2f	-mu-
1F	-ie/	4A	-ie/	1c	-ie/	1a	-ie/
.	.	4G	.	.	.	.	.
.	.	2ryy	.	.	.	.	.
=15-	=15-	=15-	=15-	=15-	=15-	=15-	=15-
2ryy	.	4A	.	2ryy	.	2ryy	.
.	.	4B-	.	.	.	.	.
2E-X	y	2c/	y	2G	y	2g/	y
2D/	ťtó	2A	ťtó-	2d	ťtó	1f	ťtó-
2BB-	.	2B-	.	2d	.	.	.
=16-	=16-	=16-	=16-	=16-	=16-	=16-	=16-
2C	rym	2G	rym	2c/	rym	2e	-rym
2AA	mróӡ	2A	mróӡ	2c/	mróӡ	1f	mróӡ
2BB-	.	2G	.	2B-	.	.	.
2C	wie-	2G	wie-	4A	wie	2e	wie-
.	.	.	.	4G	.	.	.
=17-	=17-	=17-	=17-	=17-	=17-	=17-	=17-
!!LO:N:vis=00
!	!	!'belka po lewej'	!'belka po lewej'	!	!	!	!
0FF\	-cӡny.	0F/	-cӡny.	0A/	cӡny.	0f	-cӡny./
=-	=-	=-	=-	=-	=-	=-	=-
*-	*-	*-	*-	*-	*-	*-	*-
!!!RDF**kern: l = terminal long
!!!system-decoration: s1,s2,s3,s4
!!!ENC:Anna Matuszewska
!!!END:2020-02-09
!!!URL-scan: https://polona.pl/item/melodiae-na-psalterz-polski,Nzk3MTM4ODQ/124 Scan on Polona
!!!IIIF: https://polona.pl/iiif/item/Nzk3MTM4ODQ/manifest.json
